X: 104
T: Ma meren
%%abc-version 2.0
%%abcx-abcm2ps-target-version 5.9.1 (29 Sep 2008)
%%abc-creator hum2abc beta
%%abcx-conversion-date 2013/10/02 07:52:29
%%abc-edited-by Helmut Schaffrath
%%humdrum-veritas 932292232
%%humdrum-veritas-data 319800758
%%continueall 1
%%barnumbers 0
L: 1/8
M: 2/4
K: C
ee2e [I:setbarnb 1]| 
d4 | 
ee2e | 
d4 | 
e de2 | 
d e d e | 
d3A | 
G2z2 | 
G3E | 
D3D | 
d3c | 
d2z2 | 
d cd2 | 
A c A G | 
G3A | 
c2d2 | 
A c/ d/ G E | 
D4 |]  



